X:10
T:Sans te voir, nous t'aimons - M20
C:L. Deiss
M:4/4
K:Bb
B,C|D2FF D4|z2DF G2AA|G4 FG BB|A/G/F2D D4|G3G FE D2C2|z2D2 FD2C|
B,4 z2FG|BB AB cB AG|B2G2 FG FD|DC2B, D2GA|BB GG c2AB|
GFF4D2|D2CD E2E2|FED4D2|B2BB B/A/G3|AAA2 AG FD|D4z2||
